icons/svg/folder-multiple-image.svg

<svg xmlns="http://www.w3.org/2000/svg" version="1.1" baseProfile="full" width="24" height="24" viewBox="0 0 24.00 24.00" xml:space="preserve"><path fill="#000" fill-opacity="1" stroke-linejoin="round" d="M7 15l4.5-6 3.5 4.51 2.5-3.01L21 15m1-11h-8l-2-2H6c-1.1 0-1.99.9-1.99 2L4 16c0 1.1.9 2 2 2h16c1.1 0 2-.9 2-2V6c0-1.1-.9-2-2-2zM2 6H0v5h.01L0 20c0 1.1.9 2 2 2h18v-2H2V6z"/></svg>

﻿<?xml version="1.0" encoding="utf-8"?>
<!DOCTYPE svg PUBLIC "-//W3C//DTD SVG 1.1//EN" "http://www.w3.org/Graphics/SVG/1.1/DTD/svg11.dtd">
<svg xmlns="http://www.w3.org/2000/svg" xmlns:xlink="http://www.w3.org/1999/xlink" version="1.1" baseProfile="full" width="24" height="24" viewBox="0 0 24.00 24.00" enable-background="new 0 0 24.00 24.00" xml:space="preserve">
	<path fill="#000000" fill-opacity="1" stroke-linejoin="round" d="M 7,15L 11.5,9L 15,13.51L 17.5,10.5L 21,15M 22,4L 14,4L 12,2L 6,2C 4.9,2 4.01,2.9 4.01,4L 4,16C 4,17.1 4.9,18 6,18L 22,18C 23.1,18 24,17.1 24,16L 24,6C 24,4.9 23.1,4 22,4 Z M 2,6L 0,6L 0,11L 0.00999999,11L 0,20C 0,21.1 0.9,22 2,22L 20,22L 20,20L 2,20L 2,6 Z "/>
</svg>
